img/buy-img-4.svg

<svg width="150" height="46" viewBox="0 0 150 46" fill="none" xmlns="http://www.w3.org/2000/svg">
<g clip-path="url(#clip0_1720_645)">
<path d="M36.8 12C36.4 12.4 36.4 13 36.8 13.3C37.2 13.7 37.8 13.7 38.1 13.3C38.5 12.9 38.5 12.3 38.1 12C37.7 11.6 37.1 11.6 36.8 12Z" fill="#FEFEFE"/>
<path d="M46 11.3999H42L41 12.5999C40.8 12.7999 40.9 12.8999 41.1 12.9999L42.4 13.5999L46.1 11.8999C46.4 11.7999 46.3 11.3999 46 11.3999ZM31.1 30.9999H26.2C24.9 31.7999 24.5 31.9999 22.8 32.6999C22.7 32.6999 22.6 32.8999 22.7 32.9999L27.1 45.2999H29.6L25.6 33.9999C28.2 33.9999 34.5 33.2999 37.9 27.7999C36.8 29.3999 34.3 30.9999 31.1 30.9999ZM38.1 13.2999C37.7 13.6999 37.1 13.6999 36.8 13.2999C36.4 12.8999 36.4 12.2999 36.8 11.9999C37.2 11.5999 37.8 11.5999 38.1 11.9999C37.3 11.1999 36 11.1999 35.3 11.9999C34.6 12.7999 34.5 13.9999 35.3 14.7999C36.1 15.5999 37.4 15.5999 38.1 14.7999C38.8 13.9999 38.9 12.7999 38.1 11.9999C38.4 12.3999 38.4 12.8999 38.1 13.2999ZM28.4 35.6999L31.8 45.2999H34.3L30.7 35.1999C30.1 35.3999 29.3 35.4999 28.4 35.6999ZM31.8 23.6999C32.1 23.2999 32.3 22.8999 32.6 22.3999C32.5 22.2999 32.4 22.3999 32.3 22.4999C27.2 27.8999 22.3 28.5999 18.5 28.5999H12.7C12.5 28.5999 12.4 28.3999 12.5 28.1999C17 21.9999 21.9 17.0999 25.6 13.9999L15.9 22.0999C15.1 22.6999 14.2 23.0999 13 23.0999H0.799984C0.499984 23.0999 0.599984 23.3999 0.599984 23.5999C1.39998 26.1999 3.79998 28.5999 7.79998 28.5999L4.89998 31.4999C4.79998 31.5999 4.79998 31.8999 5.09998 31.8999H16C23.8 31.8999 28.7 28.4999 31.8 23.6999Z" fill="#00985F"/>
<path d="M140.6 45.3H149.5V17.8H140.6V27.9H132.2V17.8H123.3V45.3H132.2V34.9H140.6V45.3ZM35.3 14.8C34.5 14 34.5 12.8 35.3 12C36.1 11.2 37.4 11.2 38.1 12C38.8 12.8 38.9 14 38.1 14.8C37.3 15.6 36 15.6 35.3 14.8ZM37.8 27.8C41.2 22.3 42.4 13.6 42.4 13.6L41.1 13C40.9 12.9 40.9 12.8 41 12.6L42 11.4C41.4 10.2 39.2 8.2 36 8.2C34.1 8.2 32.4 8.7 30.9 9.7C30.9 9.7 28.7 11.2 25.6 13.9C21.9 17.1 17 21.9 12.5 28.1C12.4 28.3 12.5 28.5 12.7 28.5H18.5C22.3 28.5 27.2 27.8 32.3 22.4C32.4 22.3 32.5 22.3 32.6 22.3C32.7 22.4 32.7 22.5 32.7 22.6C31.9 24.6 29.9 28.5 26.2 30.9H31.1C34.4 30.9 36.8 29.4 37.8 27.8ZM32.8 34.4L36.6 45.2H47.4C45.2 38.5 42.8 32.3 40.5 26.6C38.7 30.5 37 32.4 32.8 34.4ZM0 45.3H10.9L14.6 33.8H4C2.7 37.2 1.4 41 0 45.3ZM14.7 20.6L20.2 16.1C21.4 12.9 22.6 9.7 23.8 7C24.4 8.4 25 9.9 25.6 11.4C28.6 8.9 30.5 7.4 33 6.7C31.5 3.4 30.4 1 29.9 0H17.7C16.7 2.2 12.8 10.3 8.2 21.2H12.6C13.5 21.2 14.2 21.1 14.7 20.6ZM82.1 42.2L82.7 45.2H89.9V17.8H81V36.9C80.2 37.8 78.7 38.8 77.3 38.8C74.8 38.8 73.5 37.4 73.5 34.8V17.8H64.6V36.9C63.8 37.8 62.1 38.8 60.6 38.8C58.3 38.8 57 37.4 57 34.8V17.8H48.1V36C48.1 42.6 51 45.9 57 45.9C61.3 45.9 63.9 44.3 65.9 42.2C67.3 44.7 69.8 45.9 73.5 45.9C77.8 45.8 80.2 44.3 82.1 42.2ZM110.4 36.8C109.6 37.7 108.3 38.7 106.1 38.7C103.7 38.7 102.4 36.5 102.4 32.2C102.4 26.9 103.8 24.3 106.7 24.3C108.4 24.3 109.2 24.4 110.4 24.7V36.8ZM103 45.8H103.3C107.3 45.8 110 44.4 111.5 42.2L112 45.2H119.3V18.9C116.4 18 113 17.2 106.8 17.2C97.9 17.2 93.1 22.6 93.1 32.6C93.1 41.8 96.5 45.8 103 45.8Z" fill="#DC000F"/>
</g>
<defs>
<clipPath id="clip0_1720_645">
<rect width="149.5" height="45.8" fill="white"/>
</clipPath>
</defs>
</svg>

<svg width="150" height="46" viewBox="0 0 150 46" fill="none" xmlns="http://www.w3.org/2000/svg"><g clip-path="url(#clip0_1720_645)"><path d="M36.8 12c-.4.4-.4 1 0 1.3.4.4 1 .4 1.3 0 .4-.4.4-1 0-1.3-.4-.4-1-.4-1.3 0z" fill="#FEFEFE"/><path d="M46 11.4h-4l-1 1.2c-.2.2-.1.3.1.4l1.3.6 3.7-1.7c.3-.1.2-.5-.1-.5zM31.1 31h-4.9c-1.3.8-1.7 1-3.4 1.7-.1 0-.2.2-.1.3l4.4 12.3h2.5l-4-11.3c2.6 0 8.9-.7 12.3-6.2-1.1 1.6-3.6 3.2-6.8 3.2zm7-17.7c-.4.4-1 .4-1.3 0-.4-.4-.4-1 0-1.3.4-.4 1-.4 1.3 0-.8-.8-2.1-.8-2.8 0-.7.8-.8 2 0 2.8.8.8 2.1.8 2.8 0 .7-.8.8-2 0-2.8.3.4.3.9 0 1.3zm-9.7 22.4l3.4 9.6h2.5l-3.6-10.1c-.6.2-1.4.3-2.3.5zm3.4-12c.3-.4.5-.8.8-1.3-.1-.1-.2 0-.3.1-5.1 5.4-10 6.1-13.8 6.1h-5.8c-.2 0-.3-.2-.2-.4C17 22 21.9 17.1 25.6 14l-9.7 8.1c-.8.6-1.7 1-2.9 1H.8c-.3 0-.2.3-.2.5.8 2.6 3.2 5 7.2 5l-2.9 2.9c-.1.1-.1.4.2.4H16c7.8 0 12.7-3.4 15.8-8.2z" fill="#00985F"/><path d="M140.6 45.3h8.9V17.8h-8.9v10.1h-8.4V17.8h-8.9v27.5h8.9V34.9h8.4v10.4zM35.3 14.8c-.8-.8-.8-2 0-2.8.8-.8 2.1-.8 2.8 0 .7.8.8 2 0 2.8-.8.8-2.1.8-2.8 0zm2.5 13c3.4-5.5 4.6-14.2 4.6-14.2l-1.3-.6c-.2-.1-.2-.2-.1-.4l1-1.2c-.6-1.2-2.8-3.2-6-3.2-1.9 0-3.6.5-5.1 1.5 0 0-2.2 1.5-5.3 4.2-3.7 3.2-8.6 8-13.1 14.2-.1.2 0 .4.2.4h5.8c3.8 0 8.7-.7 13.8-6.1.1-.1.2-.1.3-.1.1.1.1.2.1.3-.8 2-2.8 5.9-6.5 8.3h4.9c3.3 0 5.7-1.5 6.7-3.1zm-5 6.6l3.8 10.8h10.8c-2.2-6.7-4.6-12.9-6.9-18.6-1.8 3.9-3.5 5.8-7.7 7.8zM0 45.3h10.9l3.7-11.5H4C2.7 37.2 1.4 41 0 45.3zm14.7-24.7l5.5-4.5c1.2-3.2 2.4-6.4 3.6-9.1.6 1.4 1.2 2.9 1.8 4.4 3-2.5 4.9-4 7.4-4.7C31.5 3.4 30.4 1 29.9 0H17.7c-1 2.2-4.9 10.3-9.5 21.2h4.4c.9 0 1.6-.1 2.1-.6zm67.4 21.6l.6 3h7.2V17.8H81v19.1c-.8.9-2.3 1.9-3.7 1.9-2.5 0-3.8-1.4-3.8-4v-17h-8.9v19.1c-.8.9-2.5 1.9-4 1.9-2.3 0-3.6-1.4-3.6-4v-17h-8.9V36c0 6.6 2.9 9.9 8.9 9.9 4.3 0 6.9-1.6 8.9-3.7 1.4 2.5 3.9 3.7 7.6 3.7 4.3-.1 6.7-1.6 8.6-3.7zm28.3-5.4c-.8.9-2.1 1.9-4.3 1.9-2.4 0-3.7-2.2-3.7-6.5 0-5.3 1.4-7.9 4.3-7.9 1.7 0 2.5.1 3.7.4v12.1zm-7.4 9h.3c4 0 6.7-1.4 8.2-3.6l.5 3h7.3V18.9c-2.9-.9-6.3-1.7-12.5-1.7-8.9 0-13.7 5.4-13.7 15.4 0 9.2 3.4 13.2 9.9 13.2z" fill="#DC000F"/></g><defs><clipPath id="clip0_1720_645"><path fill="#fff" d="M0 0h149.5v45.8H0z"/></clipPath></defs></svg>
